!!!COM: Martinů, Bohuslav (Jan)
!!!OTL: Concertino for Violincello, Wind Instruments, Piano and Percussion
!!!OMV:
!!!example: 528
!!!work: Mau-9
**kern	**kern	**kern	**dynam
*part2	*part2	*part1	*part1
*staff3	*staff2	*staff1	*
*I"Piano	*	*I"Violoncello	*
*I'Pno.	*	*I'Vc.	*
*clefF4	*clefG2	*clefG2	*
*k[]	*k[]	*k[]	*
*C:	*C:	*C:	*
*M3/4	*M3/4	*M3/4	*
*MM121	*MM121	*MM121	*
*	*8va	*	*
=100	=100	=100	=100
8B-X'L	8.ffL 8.ccc	4cc	.
8c'J	.	.	.
.	16ggJk 16ddd	.	.
8F^L 8f	8ff 8ccc	(8b-XL	>
8c'J	8r	16aL	.
.	.	16gJJ	.
8D^L 8d	12ffL 12ccc	4f	]
.	12gg 12ddd	.	.
8c'J	.	.	.
.	12bb-XJ 12fff	.	.
=101	=101	=101	=101
8B-X'L	8.ffL 8.ccc	4g)	.
8AA^J 8A	.	.	.
.	16ggJk 16ddd	.	.
8c'L	12ffL 12ccc	(4f	<
.	12ff 12ccc	.	.
8A'J	.	.	.
.	12ggJ 12ddd	.	.
8FF^L 8F	8ff 8ccc	4c)	[[
8G'J	8r	.	.
=102	=102	=102	=102
8AA^L 8A	12ffL 12ccc	(8gL	<
.	12gg 12ddd	.	.
8c'J	.	8aJ	.
.	12bb-XJ 12fff	.	.
8B-X'L	12ffL 12ccc	8b-XL	[ >
.	12ff 12ccc	.	.
8AA^J 8A	.	16aL	.
.	12ggJ 12ddd	.	.
.	.	16gJJ)	.
8F'L	8.ffL 8.ccc	(4f	] <
8G'J	.	.	.
.	16bb-XJk 16fff	.	.
=103	=103	=103	=103
8F'	8.ffL 8.ccc	4g	[
8r	.	.	.
.	16ggJk 16ddd	.	.
8E-X^L 8e-X	12ffL 12ccc	2c)	.
.	12ff 12ccc	.	.
8f'J	.	.	.
.	12ggJ 12ddd	.	.
8A-X^L 8a-X	8.ffL 8.ccc	.	.
8g'J	.	.	.
.	16bb-XJk 16fff	.	.
=104	=104	=104	=104
8f'L	12aa-XL 12eee-X	(4d-X	<
.	12aa- 12eee-	.	.
8E-X^J 8e-X	.	.	.
.	12bb-XJ 12fff	.	.
8e-'L	8.aa-L 8.eee-	4e	.
8f'J	.	.	.
.	16bb-Jk 16fff	.	.
8C^L 8c	12aa-L 12eee-	8fL	[
.	12aa- 12eee-	.	.
8d'J	.	16eL	.
.	12bb-J 12fff	.	.
.	.	16d-JJ	.
=105	=105	=105	=105
*	*^	*	*
8E-X^L 8e-X	12aa-XL 12eee-X	4ryy	4c)	.
.	12aa- 12eee-	.	.	.
8f'J	.	.	.	.
.	12bb-XJ 12fff	.	.	.
8A-X^L 8a-X	8.eee-L	12aa-XL	(4d-X	.
.	.	12aa-	.	.
8a-'J	.	.	.	.
.	.	12bb-XJ	.	.
.	16aaa-XJk	.	.	.
*	*v	*v	*	*
8f'L	[8aa-L 8eee-	4B-X	.
8E-^J 8e-	16aa-L]	.	.
.	16bb-JJ	.	.
=106	=106	=106	=106
*	*^	*	*
8e-X'L	12aa-XL	4ryy	4c)	.
.	12aa- 12eee-X	.	.	.
8f'J	.	.	.	.
.	12bb-XJ 12ddd-X 12aaa-X	.	.	.
*	*v	*v	*	*
8C^L 8c	8.aa-L 8.eee-	(8d-XL	.
8d-X'J	.	16cL	.
.	16bb-Jk 16fff	16B-XJJ	.
8E-X^L 8e-	12aa-L 12eee-	4c)	.
.	12aa- 12eee-	.	.
8f'J	.	.	.
.	12bb-J 12fff	.	.
=107	=107	=107	=107
*	*X8va	*	*
8a-X'L	8.a-XL 8.ee-X	(8e-XL	.
8G^J 8g	.	8d-XJ	.
.	16b-XJk 16dd-X 16ff	.	.
8f'L	12a-L 12ee-	4c)	.
.	12a- 12ee-	.	.
8e-X'J	.	.	.
.	12b-J 12ff	.	.
8F^L 8f	8a- 8ee-	(8d-L	.
8c'J	16r	16cL	.
.	16b-	16B-XJJ)	.
=	=	=	=
*-	*-	*-	*-
!!!system-decoration: s1{(s2,s3)}
!!!CDT: 1890/12/08-1959/08/28
!!!CBL: Polička, Bohemia
!!!CDL: Liestal, Switzerland
!!!CNT: Czech
!!!AGN: Orchestral; Concerto
!!!MCN: Neumann, V.
!!!MDT: 1949/03/24
!!!MGN: unknown
!!!MLC: Prague, Czechia
!!!MPD: 1949
!!!MPN: Večtomov, I.
!!!ODT: 1924
!!!PDT: 1964
!!!excerpt-start-measure: 100
!!!excerpt-end-measure: 107
!!!excerpt-start-time: 2:55
!!!excerpt-end-time: 3:15
!!!EEV: 2020/01/27
!!!ONB: Converted from MusicXML on 2020/01/27
